/* XPM */
static char *_65c541c918e44a097fd8163b8052582LDnIX1kv8cBNQwL3[] = {
/* columns rows colors chars-per-pixel */
"32 32 20 1 ",
"  c None",
". c #17131B",
"X c #17141A",
"o c #17141B",
"O c #17151B",
"+ c #17141C",
"@ c #18141B",
"# c #18151B",
"$ c #6A204E",
"% c #6A204F",
"& c #6B204F",
"* c #6F555B",
"= c #6F545C",
"- c #6F555C",
"; c #70545C",
": c #70565C",
"> c #C71F41",
", c #6A83B0",
"< c #94C9DB",
"1 c #ECF5F9",
/* pixels */
"                                ",
"                                ",
"                                ",
"                                ",
"                                ",
"              ooooo+            ",
"           oo%>>>>>oo@          ",
"          -o%>>>>>>>>oo         ",
"          oo%>>>>oooooo-        ",
"          o%>>>oo,<111oo;       ",
"          o%>>>o,<<<111<o       ",
"       *ooo%>>>o,<<<<<<<o       ",
"       o>>o%>>>o,,,<<<<,o       ",
"       o>>o%>>>o,,,,,,,,o-      ",
"       o>%o%>>>oo,,,,,oo;       ",
"       o%%o%>>>>oooooo>o        ",
"       o%%o%>>>>>>>>>>>o        ",
"       o%%o%%>>>>>>>>>>o        ",
"       o%%o%%>>>>>>>>>%o        ",
"       o%%o%%%>>>>>>>>%o        ",
"       o%%o%%%%%>>>>>%%o        ",
"       oo%o%%%%%%%%%%%%o        ",
"        ooo%%%%%%%%%%%o         ",
"          o%%%%%oooo%%o         ",
"          o%%%%% - %%%o         ",
"           o%%%% -@%%%o         ",
"           o%%%o   o%%o         ",
"            oo@     oo          ",
"                                ",
"                                ",
"                                ",
"                                "
};
