/* XPM */
static char *_86d3cc7f0c2408cc5b3328574a76e8e7TAcDxsy4sy3jiYM[] = {
/* columns rows colors chars-per-pixel */
"32 32 8 1 ",
"  c None",
". c #17141B",
"X c #6A204F",
"o c #6F555C",
"O c #C71F41",
"+ c #6A83B0",
"@ c #94C9DB",
"# c #ECF5F9",
/* pixels */
"                                ",
"                                ",
"                                ",
"                                ",
"                                ",
"            ......              ",
"          ...OOOOOX..           ",
"         ..OOOOOOOOX.o          ",
"        o......OOOOX..          ",
"       o..###@+..OOOX.          ",
"       .@###@@@+.OOOX.          ",
"       .@@@@@@@+.OOOX...o       ",
"       .+@@@@+++.OOOX.OO.       ",
"      o.++++++++.OOOX.OO.       ",
"       o..+++++..OOOX.XO.       ",
"        .O......OOOOX.XX.       ",
"        .OOOOOOOOOOOX.XX.       ",
"        .OOOOOOOOOOXX.XX.       ",
"        .XOOOOOOOOOXX.XX.       ",
"        .XOOOOOOOOXXX.XX.       ",
"        .XXOOOOOXXXXX.XX.       ",
"        .XXXXXXXXXXXX.X..       ",
"         .XXXXXXXXXXX...        ",
"         .XX....XXXXX.          ",
"         .XXX o XXXXX.          ",
"         .XXX.o XXXX.           ",
"          .XX.  .XXX.           ",
"           ..    ...            ",
"                                ",
"                                ",
"                                ",
"                                "
};
