/* XPM */
static char *result[] = {
/* columns rows colors chars-per-pixel */
"32 32 4 1 ",
"  c #C4FFB4",
". c #323131",
"X c #5D11EA",
"o c white",
/* pixels */
"                                ",
"                                ",
"                                ",
"         XXXXXXXXXXXXXX         ",
"       XXXXXXXXXXXXXXXXXX       ",
"      XXXXXXXXXXXXXXXXXXXX      ",
"     XXXXXXXXoooXXXoooXXXXX     ",
"    XXXXXXXXXoooXXXoooXXXXXX    ",
"   XXXXXXXXXXoooXXXoooXXXXXXX   ",
"   XXXXXXXXXXoo.XXXoo.XXXXXXX   ",
"  XXXXXXXXXXXo..XXXo..XXXXXXXX  ",
"  XXXXXXXXXXXo..XXXo..XXXXXXXX  ",
"  XXXXXXXXXXXo..XXXo..XXXXXXXX  ",
"  XXXXXXXXXXXXXXXXXXXXXXXXXXXX  ",
"  XXXXXXXXXXXXXXXXXXXXXXXXXXXX  ",
"   XXXXXXXXXXXXXXXXXXXXXXXXXX   ",
"   XXXXXXXXXXXXXXXXXXXXXXXXXX   ",
"     XXXXXXXX  XX  XXXXXXXX     ",
"      XX  XX   XX   XX  XX      ",
"      XX  XX   XX   XX  XX      ",
"     XXX  XX   XX   XX  XXX     ",
"     XX   XX   XX   XX   XX     ",
"     XX   XX   XX   XX   XX     ",
"    XXX  XXX   XX   XXX  XXX    ",
"    XXX  XXX   XX   XXX  XXX    ",
"   XXX   XX    XX    XX   XXX   ",
"   XXX  XXX    XX    XXX  XXX   ",
"   XX   XXX    XX    XXX   XX   ",
"        XX     XX     XX        ",
"                                ",
"                                ",
"                                "
};
